X: 5730
T: Caha Mountains
R: reel
M: 4/4
K: Adorian
|:d2dc AcGc|AGEF GABd|~c3d ~c3A|GEAG EAGE|
D2dc AcGc|AGEF GEag|fage d2AF|1 GEAG FD fe:|2 GEAG FDD e||
|:fdd^c defa|g2ga bgag|f"="adf ~a3f|"="gceg fdde|
fdd^c defa|g2ga bgag|((3fga) ge d2AF|1 GEAG FDD e:|2 GEAG FD fe||

